X: 1555
T: Angry Peeler, The
R: jig
M: 6/8
K: Gmajor
B2A GG,G,|B,DD D2B,|DEG AGE|~G3 AGA|
B2A GG,G,|B,DD D2B,|DEG AGE|GAG G2A:|
~B3 ~d3|dee dBA|GAB AGE|GAB AGA|
~B3 ~d3|dee dBA|GAB AGA|AGF G2A|
~B3 ~d3|dee dBA|GAB AGE|GAB AGA|
~B3 d2B|def g2G|GAB AGA|AGF G2A||

